X: 126
T: No_52_Song_Before_the_Boys'_Fight.krn
%%abc-version 2.0
%%abcx-abcm2ps-target-version 5.9.1 (29 Sep 2008)
%%abc-creator hum2abc beta
%%abcx-conversion-date 2020/08/10 18:54:57
%%humdrum-veritas 1850277122
%%humdrum-veritas-data 1793596733
%%linebreak <none>
%%barnumbers 0
L: 1/16
M: 2/4
K: F clef=bass
F [I:setbarnb 1]| 
F2>D2 D3D | 
D2>D2 D2D3/D/ | 
C2>D2D4 ||  
[M:3/4]B,2G,>G,B,4(3:2:4D2B,2G,G, | 
F,2>D,2D,4-D,2D,2 ||  
[M:2/4]B,4G,G,G,3/G,/ | 
F,2>D,2D,4 | 
F,3D,/D,/ D,3D, | 
D,2>D,2D,4 |]  


